X:1
T:Kesh Jig
M:6/8
L:1/8
O:Trad. (29.11.2013/NS)
R:jig
K:Gmaj
|:"G"G2G GAB|"D"A2A ABd|"G"edd gdd|"D"edB dBA|
"G"G2G GAB|"D"A2A ABd|"G"edd "C"gdB|"D"AGF "G"G3:|
"G"B2B d2d|ege dBA|B2B dBG|"D"ABA A2A|
"G"B2B dBd|ege d2d|"C"g2g aga| "D"bgg "G"g3:|
